X: 2
T: Piano Sonata no. 1 in F minor, Adagio
C: Ludwig van Beethoven
%%abc-version 2.0
%%abcx-abcm2ps-target-version 5.9.1 (29 Sep 2008)
%%abc-creator hum2abc beta
%%abcx-conversion-date 2021/01/11 11:42:10
%%abc-edited-by Craig Stuart Sapp
%%abc-edited-by Craig Stuart Sapp
%%abcx-initial-encoding-date 2004/04/06
%%gracespace 0 6 6
%%humdrum-veritas 1408859262
%%humdrum-veritas-data 2721085254
%%linebreak <none>
%%barnumbers 0
L: 1/16
M: 3/4
Q: "Adagio" 1/4=40
%%staves {1 2}
V: 1 clef=treble
V: 2 clef=bass
K: F
[V:1] C3C [I:setbarnb 1]| 
[V:2] z4 | 
[V:1] !turn!A4{/c} B2A2G2F2 | 
[V:2] C4D2C2B,2A,2 & F,8F,4 | 
[V:1] F4E2 C2[=B,2D2][_B,2E2] | 
[V:2] A,4G,2 z2z4 & C,6x6 | 
[V:1] F2c z c2B z B2A z & x4G4F4 | 
[V:2] [A,4C4][E,4C4][F,4C4] | 
[V:1] [F4A4][EG] CDE F^FG^G | 
[V:2] [C,4C4]>z4z4 | 
[V:1] !turn!A4{/c} B2[F2A2][E2G2]F2 | 
[V:2] C4D2C2B,2A,2 & F,8F,4 | 
[V:1] [F4d4][G4e4]gfef & x8c4 | 
[V:2] [B,4D4][C4D4][A,4F4] | 
[V:1] edcB2< !turn!A2A cBGE | 
[V:2] [B,4F4][C4F4]C,E,G,B, | 
[V:1] [E4G4]F2 z2 c3f | 
[V:2] [F,4-B,4][F,2A,2] z2z4 | 
[V:1] f4e4!turn!f3a | 
[V:2] G,B,CB, G,B,CB, F,A,CA, & C,12 | 
[V:1] c'4=bc'd'c' _bagf | 
[V:2] E,G,CG, E,G,CG, F,A,CA, & C,12 | 
[V:1] f4e4!turn!f>g!turn!a3/=b/ | 
[V:2] G,B,CB, G,B,CB, A,CA,F, & C,12 | 
[V:1] d'2c'2- c'=bd'c' c'_bab | 
[V:2] C,E,G,C[K:clef=treble] EGCE DFEG | 
[V:1] !turn!a4{/c'} b2[f2a2] [e2g2]f2 | 
[V:2] Fcfe d2c2B2A2 & F8F4 | 
[V:1] [c4e4][B2d2] z2 [d3d'3][cc'] | 
[V:2] [B,4F4]>z4 [B,3E3][A,F] | 
[V:1] c'f'e'd' ^c'{/e'}d'=c'b ac'bg | 
[V:2] [A,4F4]B,DGB FAGE[K:clef=bass] & x4B,4C4 | 
[V:1] [B4g4][A2f2] z2!turn!a4 | 
[V:2] [F,4-E4][F,2F2] z2z4 | 
[V:1] d'4D,4[d3d'3][dd'] | 
[V:2] z [DF][EG][FA] z [FA][E^G][FA] z [FA][E=G][DF] | 
[V:1] [d4d'4][^c2^c'2] z2 !turn!c'3d' | 
[V:2] z [EG][FA][GB] z [GB][^FA][GB] z [GB][=FA][EG] | 
[V:1] e'4A,,4g3g | 
[V:2] z [^CE][DF][EG] z [EG][^D^F][EG] z [EG][=D=F][^CE] | 
[V:1] g4f2 z2!turn!f4 | 
[V:2] z [DF][EG][FA] z [FA][EG][DF] z [DF][^CE][DF] | 
[V:1] d'4G,,4[f3f'3][ff'] | 
[V:2] z [=B,D][=CE][DF] z [DF][CE][B,D] z [=B,D][^A,^C][B,D][K:clef=treble] | 
[V:1] [f2f'2][e2e'2] [e2e'2][d2d'2] [d2d'2][c2c'2] | 
[V:2] z [=CE][=B,^D][CE] z [=DF][^CE][DF] z [EG][^D^F][EG] | 
[V:1] c'2=b2- b/c'/d'/c'/b/c'/d'/b/ c'd'e'c' & d4x4x4 | 
[V:2] G4!sfz!_A2G2e2c2 & =F8[E4G4] | 
[V:1] {/=b/c'/d'/} c'2=b2- b/c'/d'/c'/b/c'/d'/b/ c'/d'/e'/d'/c'/b/a/g/ | 
[V:2] [G4d4]!sfz!_A2G2e2c2 & F8[E4G4] | 
[V:1] ^g/a/c'/=b/a/=g/f/e/ g/f/a/g/f/e/d/^c/ d/e/f/e/g/f/e/d/ | 
[V:2] [F2A2] z2z4[K:clef=bass][F,2A,2D2] z2 | 
[V:1] =c/d/c/=B/c/G/A/B/ c/d/e/f/g/^f/g/f/ .g.=f.e.d | 
[V:2] [G,2C2E2] z2z4[G,2=B,2F2] z2 | 
[V:1] c2[K:clef=bass] C2 [A,2F2][G,2E2][F,2A,2D2][E,2G,2C2] | 
[V:2] [C2E2] z2z4z4 | 
[V:1] C4=B,4B,4 & [D,8F,8G,8][D,4F,4G,4] | 
[V:2] [G,,,4G,,4]-[G,,,G,,]A,,,/=B,,,/C,,/D,,/E,,/F,,/ G,,/^F,,/G,,/A,,/G,,/=F,,/E,,/D,,/ | 
[V:1] [E,2C2][K:clef=treble] (3!turn!CEG (3GF z (3FE z (3ED z (3DC z[K:clef=bass] | 
[V:2] C,,2 z2 (3z A,C (3z G,=B, (3z F,A, (3z E,G, | 
[V:1] C4=B,4[K:clef=treble][D4F4=B4] & [D,8F,8G,8]x4 | 
[V:2] [G,,,4G,,4]-[G,,,G,,]A,,/=B,,/C,/D,/E,/F,/ G,/^F,/G,/A,/G,/=F,/E,/D,/ | 
[V:1] [E2c2] !sfz!C2- CD/E/F/G/A/_B/ c/=B/c/d/c/_B/A/G/ | 
[V:2] z4_B,2G,2 E,2C2 & C,12 | 
[V:1] !turn!A4{/c} B2A2G2F2 | 
[V:2] C4D2C2B,2A,2 & F,8F,4 | 
[V:1] F4E2 C2[=B,2D2][_B,2E2] & C6x6 | 
[V:2] A,4G,2 z2z4 & C,6x6 | 
[V:1] Fc.c.c cB.B.B BA.A.A & F4G4F4 | 
[V:2] [A,4C4][E,4C4][F,4C4] | 
[V:1] A3B/A/ G2 (3.C.^C.D (3._E.=E.F (3.^F.G.^G & F4E2x6 | 
[V:2] [C,4C4]>z4z4 | 
[V:1] !turn!A4(3cB z (3BA z (3AG z (3GF z | 
[V:2] (3:2:6F,A,CFE_Ex4x4[K:clef=treble] & F,4(3z DF (3z FC (3z B,=E (3z CA, | 
[V:1] d4!turn!e4g/f/e/f/e/f/g/f/ | 
[V:2] (3:2:6B,DFBFD (3:2:6B,CEGEC (3:2:6A,CFAFC | 
[V:1] e/d/^c/d/e/d/=c/B/!turn!A4cBGE | 
[V:2] (3:2:6B,DFGFD[K:clef=bass] (3:2:6C,F,A,CA,F, (3:2:6C,G,B,CB,G, | 
[V:1] G4F2 z2 c3f | 
[V:2] (3:2:6F,B,CECB, (3:2:6F,A,CFCB, (3:2:6A,CB,A,G,F, | 
[V:1] f4e4!turn!f3a | 
[V:2] (3:2:6C,G,B,CB,G, (3:2:6C,G,B,CB,G, (3:2:6C,F,A,CA,F, | 
[V:1] c'4=bc'd'c' _bagf | 
[V:2] (3:2:6C,E,G,CG,E, (3:2:6C,E,G,CG,E, (3:2:6C,F,A,CA,F, | 
[V:1] f4e/f/e/d/e/c/d/e< !turn!fg<!turn!a=b/ | 
[V:2] (3:2:6C,G,B,CB,G, (3:2:6C,G,B,CB,G, (3:2:6C,F,A,CA,F, | 
[V:1] d'2c'2 (3z =bc' (3z d'c' (3z c'=b (3z c'_b | 
[V:2] (3:2:6C,E,G,CED[K:clef=treble] (3:2:6CEGcCE (3:2:6DFcEGc | 
[V:1] a2>!turn!a2 (3z c'b (3z ba (3z ag (3z gf | 
[V:2] (3:2:6FAcfe_e (3dfd (3c=ec (3BdB (3AcA[K:clef=bass] & F8F4 | 
[V:1] [c4e4][B4d4][d3d'3][cc'] | 
[V:2] F8F4 & B,4>A,4 [^G,3=B,3][A,C] | 
[V:1] c'f'2e'/d'/ ^c'/e'/d'/=c'/b/a/c'/b/ a/g/b/g/f/e/g/e/ | 
[V:2] x4[K:clef=treble]D2G2E2B2 & [A,4C4F4]B,4C4 | 
[V:1] [e4g4]f cfc BAGF | 
[V:2] B4A2 z2z4[K:clef=bass] & F6x6 | 
[V:1] F2E2- E/F/G/F/E/F/G/E/ FGAF & x8C4 | 
[V:2] [C,4G,4]!sfz!_D,2C,2A,2F,2 & B,,8A,,4 | 
[V:1] F2E2- E/F/G/F/E/F/G/E/ F/A/c/B/A/G/F/_E/ & x8C4 | 
[V:2] [C,4G,4]!sfz!_D,2C,2A,2F,2 & B,,8A,,4 | 
[V:1] D/_E/D/^C/D/=E/F/^F/ G/A/B/c/d/e/f/^f/ g/a/b/c'/d'/e'/f'/d'/ | 
[V:2] [B,,2D,2] z2z4[K:clef=treble][B,2D2G2] z2 | 
[V:1] c'/d'/c'/=b/c'/f'/e'/d'/ c'/b/_b/a/g/f/e/d/ .c.B.A.G[K:clef=bass] | 
[V:2] [C2F2A2] x2z4[K:clef=bass][C,4E,4B,4] | 
[V:1] F8-F2 CF[K:clef=treble] & z2 F,2B,2A,2G,2F,2 | 
[V:2] z2 A,,2D,2C,2B,,2F,,A,, & F,,8x4 | 
[V:1] F4E4[G,4B,4C4E4] | 
[V:2] [G,8B,8C8]x4 & [C,,4C,4]-[C,,C,]D,,/E,,/F,,/G,,/A,,/B,,/ C,/=B,,/C,/D,/C,/_B,,/A,,/G,,/ | 
[V:1] (3[A,CF]A,C (3FAc (3cFB (3B=EA (3ADG (3GCF | 
[V:2] F,,2 z2 (3z _ED (3z DC (3z CB, (3z B,A, | 
[V:1] [G,8B,8C8][c4e4] & F4E4[G4B4] | 
[V:2] [C,,4C,4]-[C,,C,]D,/E,/F,/G,/A,/B,/ C/=B,/C/D/C/_B,/A,/G,/ | 
[V:1] z (3F/A/c/ z (3:2:6f/a/c'/ c'/a/b/ z (3b/^g/a/ z (3a/^f/=g/ z (3g/e/=f/ z | 
[V:2] (3F,/A,/C/ z[K:clef=treble] (3F/A/c/ z z (3^c/d/f/ z (3=B/=c/e/ z (3A/_B/d/ z (3^G/A/c/ | 
[V:1] f4e/.c/.d/.e/.f/.g/.a/.b/ c'/=b/c'/d'/c'/_b/a/g/ | 
[V:2] [C4G4B4]>z4[C4E4G4B4] | 
[V:1] f2 z2 !turn!c.d/.e/.f/.g/.a/.b/ c'/=b/c'/d'/c'/_b/a/g/ | 
[V:2] [F2A2] z2z4[C4E4G4B4] | 
[V:1] g6-!turn!g>a c'bge | 
[V:2] B4c4_d4 & F12 | 
[V:1] [e4g4]f2 z2z4 | 
[V:2] [B4_d4][A2c2] z2z4[K:clef=bass] & F6x6 | 
[V:1] .[G2B2c2e2g2] z2 .[A2c2f2] !fermata!z2 |]  
[V:2] .[C,2E,2G,2C2] z2 .[F,,2A,,2C,2F,2] !fermata!z2 |]  


